src/16/actions/window-previous.svg

<svg xmlns="http://www.w3.org/2000/svg" width="16" height="16" viewBox="0 0 16 16">
 <defs>
  <style id="current-color-scheme" type="text/css">
   .ColorScheme-Text { color:#565656; } .ColorScheme-Highlight { color:#5294e2; }
  </style>
 </defs>
 <path style="fill:currentColor" class="ColorScheme-Text" d="M 1.9980469 1 C 1.9980469 1 1.9183594 1.0044375 1.8183594 1.0234375 C 1.6142394 1.0535875 1.4596731 1.1269325 1.3457031 1.2265625 C 1.3237031 1.2435025 1.30225 1.26163 1.28125 1.28125 C 1.26165 1.30222 1.2434625 1.3236331 1.2265625 1.3457031 C 1.1269325 1.4596831 1.0535375 1.6142394 1.0234375 1.8183594 C 1.0040375 1.9237694 1 2 1 2 L 1 14 C 1 15 2 15 2 15 L 14 15 C 14 15 15 15 15 14 L 15 2 C 15 2 14.995963 1.9237694 14.976562 1.8183594 C 14.946412 1.6142394 14.873038 1.4596731 14.773438 1.3457031 C 14.756437 1.3236331 14.73835 1.30222 14.71875 1.28125 C 14.69785 1.26163 14.676397 1.2435025 14.654297 1.2265625 C 14.540327 1.1269325 14.385761 1.0535875 14.181641 1.0234375 C 14.076201 1.0040975 14 1 14 1 L 13.998047 1 L 1.9980469 1 z M 3 6 L 13 6 L 13 13 L 3 13 L 3 6 z M 8 7 L 5 9.5 L 8 12 L 8 10 L 11 10 L 11 9 L 8 9 L 8 7 z"/>
</svg>

<svg xmlns="http://www.w3.org/2000/svg" width="16" height="16"><defs><style id="current-color-scheme" type="text/css"></style></defs><path d="M1.998 1s-.08.004-.18.023a.9.9 0 0 0-.472.204.886.886 0 0 0-.065.054.86.86 0 0 0-.054.065.9.9 0 0 0-.204.472C1.004 1.924 1 2 1 2v12c0 1 1 1 1 1h12s1 0 1-1V2s-.004-.076-.023-.182a.9.9 0 0 0-.204-.472.885.885 0 0 0-.054-.065.845.845 0 0 0-.065-.054.9.9 0 0 0-.472-.204C14.076 1.004 14 1 14 1H1.998zM3 6h10v7H3V6zm5 1L5 9.5 8 12v-2h3V9H8V7z" fill="currentColor" color="#565656"/></svg>
